X: 1
T: Thousand Oaks Jig
C: Pat Clark
R: jig
B: "The Strathspey Anniversary Collection" 2011 ed. Anselm Lingnau
N: Played ABABB for the dance "Das Jahrezehnt, or The Decade".
N: Ten new country dances in the Scottish tradition devised by readers of the Strathspey mailing list
Z: 2011 John Chambers <jc:trillian.mit.edu>
M: 6/8
L: 1/8
K: C
"G7"G |\
"C"cea "G/B"g2d | "Am"c>Bc "G"d2e | "Dm/F"f>ed "C"edc | "Dm"A2d "C/E"G2c |
"G"Bcd "C/E"cde | "D7"d>e^f "G7"g2G | "C"cea "G/B"g2d | "Am"c>BA "G7/B"G2f |\
"C"e2g "G7"fdB | "C"c>dB c2 |]
B |\
"F"A2A "Dm"d>cA | "C/E"G2G "C"c>Bc | "G/B"d>^cd "C"e>^de | "D7"^fef "Em"g2G |
"D7/F#"c2A "G"B>AG | "D7"^F>GA "G"G2G | "C"cea "G/B"g2d | "Am"c>BA "G"G2f |\
"C"e2g- "Dm/F"g>fd | "G7"GAB "C"c2 |]
